local/share/icons/dracula-icons-main/symbolic/actions/location-symbolic.svg

<?xml version="1.0" encoding="UTF-8"?>
<svg xmlns="http://www.w3.org/2000/svg" xmlns:xlink="http://www.w3.org/1999/xlink" width="16" height="16" viewBox="0 0 16 16">
<path fill-rule="nonzero" fill="rgb(21.176471%, 21.176471%, 21.176471%)" fill-opacity="1" d="M 9 3 L 9 4 L 12 4 C 13.660156 4 15 5.339844 15 7 C 15 8.660156 13.660156 10 12 10 L 6.707031 10 L 8.683594 8.023438 C 8.878906 7.828125 8.878906 7.511719 8.683594 7.316406 C 8.582031 7.21875 8.457031 7.167969 8.328125 7.167969 C 8.199219 7.167969 8.074219 7.21875 7.976562 7.316406 L 5.148438 10.144531 C 5 10.292969 4.964844 10.503906 5.039062 10.683594 L 5.039062 10.6875 C 5.0625 10.746094 5.097656 10.804688 5.148438 10.851562 L 7.976562 13.679688 C 8.171875 13.878906 8.484375 13.878906 8.683594 13.679688 C 8.878906 13.484375 8.878906 13.171875 8.683594 12.972656 L 6.710938 11 L 12 11 C 14.214844 11 16 9.214844 16 7 C 16 4.785156 14.214844 3 12 3 Z M 9 3 "/>
<path fill-rule="nonzero" fill="rgb(21.176471%, 21.176471%, 21.176471%)" fill-opacity="1" d="M 4 10.5 C 4 11.328125 3.328125 12 2.5 12 C 1.671875 12 1 11.328125 1 10.5 C 1 9.671875 1.671875 9 2.5 9 C 3.328125 9 4 9.671875 4 10.5 Z M 4 10.5 "/>
</svg>

<svg width="16" height="16" version="1.1" viewBox="0 0 16 16" xmlns="http://www.w3.org/2000/svg">
 <path d="m9 3v1h3c1.662 0 3 1.338 3 3s-1.338 3-3 3h-2-1-2.2949l1.9766-1.9766c0.19587-0.19587 0.19587-0.51116 0-0.70703-0.09793-0.097934-0.22571-0.14648-0.35352-0.14648s-0.25558 0.048554-0.35352 0.14648l-2.8281 2.8281c-0.1469 0.1469-0.18282 0.3605-0.10938 0.54102v0.001953c0.024482 0.05962 0.060804 0.1155 0.10938 0.16406l2.8281 2.8301c0.19587 0.19587 0.51116 0.19587 0.70703 0s0.19587-0.51116 0-0.70703l-1.9727-1.9746h2.291 1 2c2.216 0 4-1.784 4-4s-1.784-4-4-4h-3z" fill="#363636"/>
 <circle cx="2.5" cy="10.5" r="1.5" fill="#363636"/>
</svg>
